Simply-Red-Circles/scalable/apps/wayland.svg

<svg xmlns="http://www.w3.org/2000/svg" width="48" height="48" viewBox="0 0 12.7 12.7"><path fill="#a02c2c" d="M6.35.061a6.29 6.29 0 0 0-6.289 6.29 6.29 6.29 0 0 0 6.289 6.288 6.29 6.29 0 0 0 6.289-6.288A6.29 6.29 0 0 0 6.35.06zm-.018.936a5.407 5.407 0 0 1 5.407 5.407 5.407 5.407 0 0 1-5.407 5.407A5.407 5.407 0 0 1 .924 6.404 5.407 5.407 0 0 1 6.332.997zm.018.638a4.752 4.752 0 0 0-4.763 4.762A4.752 4.752 0 0 0 6.35 11.16a4.752 4.752 0 0 0 4.762-4.763c0-1.348-.557-2.56-1.452-3.425l-.125 1.065h.048l.104-.082h.028v.024c-.143.105-.281.391-.415.859a5.418 5.418 0 0 1-.257 1.115 3.39 3.39 0 0 0-.159.973l-.2.587c0 .05.075.098.228.148-.028.116-.07.174-.125.174v.033h.049v.025c0 .06-.08.09-.236.09l.028.034v.115H8.58c.032.115.1.173.207.173v.058H8.58v.033c.07 0 .103.05.103.15l-.29.114.027.034v.024c0 .039-.034.058-.104.058v.033c.088 0 .132.02.132.058-.125.05-.288.295-.491.735-.208.39-.388.586-.54.586H7.36c-.116-.088-.21-.38-.284-.875-.295-.754-.443-1.197-.443-1.329 0-.341-.095-.705-.284-1.09a3.063 3.063 0 0 1-.104-.644l-.124-.033c-.314.567-.478 1.01-.492 1.33a2.879 2.879 0 0 0-.208.676c.19.06.284.118.284.173v.033c-.148-.022-.251-.063-.311-.123-.065.149-.15.56-.257 1.238-.083.313-.187.47-.311.47a1.992 1.992 0 0 1-.88-.676c-.036 0-.097-.157-.18-.47-.05 0-.085-.158-.103-.472a6.007 6.007 0 0 1-.36-1.527V6.01h-.028l-.125.034V6.01c0-.038.042-.057.125-.057l-.028-.495v-.389l-.2-1.238v-.528c.087-.33.24-.495.457-.495 0 0 .019-.003.082.082l-.082-.025c.337.44.535.812.595 1.115h.235v.057h-.18v.067c.07.253.12.38.152.38h.056l.124-.034.028.033.028-.033.028.033v.025a.485.485 0 0 0-.187.273h-.021v.057h.049c.064.92.184 1.615.36 2.089l.103.082h.055c.07 0 .215-.322.437-.965a4.97 4.97 0 0 0 .311-.768l-.028-.09c.143-.215.291-.323.444-.323h.048c.097 0 .166.06.208.182.13.181.233.454.312.817l.388.859c.05.06.075.129.075.206.143.324.273.54.388.644h.083c.097 0 .226-.402.388-1.205.028 0 .104-.215.229-.644v-.033l-.437-.058-.104.033h-.13v-.066l.262-.025h.512c.199-.71.381-1.26.548-1.651.055-.804.131-1.205.228-1.205l.175-.084a4.742 4.742 0 0 0-2.917-.998zm.415 1.643h.076v.025c0 .038-.025.057-.076.057l-.027.033v.033l-.076-.033v-.057l.103-.058zm-.387.322v.033c0 .044-.111.09-.333.14v-.058l.153-.082.027.024h.021l.132-.057zm-.748.297v.025c-.097.088-.254.167-.471.239v-.058c.037 0 .056-.03.056-.09l.415-.116zm1.315.289l.028.033v.025l-.048.065h-.028l-.056-.065v-.025l.104-.033zm.956.033h.028v.025l-.049.065h-.028v-.033l.05-.057zm-.436.413l.104.082c-.019.06-.07.09-.152.09l-.056-.09c0-.028.034-.055.104-.082zm.623.38l.02.033v.024l-.02.033h-.055v-.033l.055-.057zm-.983.296v.025l-.132.125h-.076v-.034c0-.05.07-.088.208-.116zm-.907 2.527h.027v.058l-.208.123-.027-.033v-.057l.208-.091zm-.076.768h.02l.083.09-.027.025H6.17l-.048-.082v-.033z"/></svg>

<?xml version="1.0" encoding="UTF-8" standalone="no"?>
<svg
   xmlns:dc="http://purl.org/dc/elements/1.1/"
   xmlns:cc="http://creativecommons.org/ns#"
   xmlns:rdf="http://www.w3.org/1999/02/22-rdf-syntax-ns#"
   xmlns:svg="http://www.w3.org/2000/svg"
   xmlns="http://www.w3.org/2000/svg"
   xmlns:sodipodi="http://sodipodi.sourceforge.net/DTD/sodipodi-0.dtd"
   xmlns:inkscape="http://www.inkscape.org/namespaces/inkscape"
   width="48"
   height="48"
   viewBox="0 0 12.7 12.7"
   version="1.1"
   id="svg4"
   sodipodi:docname="wayland.svg"
   inkscape:version="0.92.4 (5da689c313, 2019-01-14)">
  <metadata
     id="metadata10">
    <rdf:RDF>
      <cc:Work
         rdf:about="">
        <dc:format>image/svg+xml</dc:format>
        <dc:type
           rdf:resource="http://purl.org/dc/dcmitype/StillImage" />
        <dc:title></dc:title>
      </cc:Work>
    </rdf:RDF>
  </metadata>
  <defs
     id="defs8" />
  <sodipodi:namedview
     pagecolor="#ffffff"
     bordercolor="#666666"
     borderopacity="1"
     objecttolerance="10"
     gridtolerance="10"
     guidetolerance="10"
     inkscape:pageopacity="0"
     inkscape:pageshadow="2"
     inkscape:window-width="1087"
     inkscape:window-height="480"
     id="namedview6"
     showgrid="false"
     inkscape:zoom="4.9166667"
     inkscape:cx="2.1355932"
     inkscape:cy="24"
     inkscape:window-x="0"
     inkscape:window-y="25"
     inkscape:window-maximized="0"
     inkscape:current-layer="svg4" />
  <path
     d="M 6.35,0.061 A 6.29,6.29 0 0 0 0.061,6.351 6.29,6.29 0 0 0 6.35,12.639 6.29,6.29 0 0 0 12.639,6.351 6.29,6.29 0 0 0 6.35,0.06 Z M 6.332,0.997 A 5.407,5.407 0 0 1 11.739,6.404 5.407,5.407 0 0 1 6.332,11.811 5.407,5.407 0 0 1 0.924,6.404 5.407,5.407 0 0 1 6.332,0.997 Z M 6.35,1.635 A 4.752,4.752 0 0 0 1.587,6.397 4.752,4.752 0 0 0 6.35,11.16 4.752,4.752 0 0 0 11.112,6.397 c 0,-1.348 -0.557,-2.56 -1.452,-3.425 L 9.535,4.037 H 9.583 L 9.687,3.955 H 9.715 V 3.979 C 9.572,4.084 9.434,4.37 9.3,4.838 9.249,5.24 9.163,5.611 9.043,5.953 A 3.39,3.39 0 0 0 8.884,6.926 l -0.2,0.587 c 0,0.05 0.075,0.098 0.228,0.148 -0.028,0.116 -0.07,0.174 -0.125,0.174 v 0.033 h 0.049 v 0.025 c 0,0.06 -0.08,0.09 -0.236,0.09 L 8.628,8.017 V 8.132 H 8.58 c 0.032,0.115 0.1,0.173 0.207,0.173 V 8.363 H 8.58 v 0.033 c 0.07,0 0.103,0.05 0.103,0.15 L 8.393,8.66 8.42,8.694 v 0.024 c 0,0.039 -0.034,0.058 -0.104,0.058 v 0.033 c 0.088,0 0.132,0.02 0.132,0.058 C 8.323,8.917 8.16,9.162 7.957,9.602 7.749,9.992 7.569,10.188 7.417,10.188 H 7.36 C 7.244,10.1 7.15,9.808 7.076,9.313 6.781,8.559 6.633,8.116 6.633,7.984 6.633,7.643 6.538,7.279 6.349,6.894 A 3.063,3.063 0 0 1 6.245,6.25 L 6.121,6.217 C 5.807,6.784 5.643,7.227 5.629,7.547 A 2.879,2.879 0 0 0 5.421,8.223 c 0.19,0.06 0.284,0.118 0.284,0.173 V 8.429 C 5.557,8.407 5.454,8.366 5.394,8.306 5.329,8.455 5.244,8.866 5.137,9.544 5.054,9.857 4.95,10.014 4.826,10.014 A 1.992,1.992 0 0 1 3.946,9.338 C 3.91,9.338 3.849,9.181 3.766,8.868 3.716,8.868 3.681,8.71 3.663,8.396 A 6.007,6.007 0 0 1 3.303,6.869 V 6.01 H 3.275 L 3.15,6.044 V 6.01 C 3.15,5.972 3.192,5.953 3.275,5.953 L 3.247,5.458 V 5.069 L 3.047,3.831 V 3.303 c 0.087,-0.33 0.24,-0.495 0.457,-0.495 0,0 0.019,-0.003 0.082,0.082 L 3.504,2.865 c 0.337,0.44 0.535,0.812 0.595,1.115 h 0.235 v 0.057 h -0.18 v 0.067 c 0.07,0.253 0.12,0.38 0.152,0.38 H 4.362 L 4.486,4.45 4.514,4.483 4.542,4.45 4.57,4.483 V 4.508 A 0.485,0.485 0 0 0 4.383,4.781 H 4.362 v 0.057 h 0.049 c 0.064,0.92 0.184,1.615 0.36,2.089 l 0.103,0.082 h 0.055 c 0.07,0 0.215,-0.322 0.437,-0.965 A 4.97,4.97 0 0 0 5.677,5.276 L 5.649,5.186 C 5.792,4.971 5.94,4.863 6.093,4.863 h 0.048 c 0.097,0 0.166,0.06 0.208,0.182 0.13,0.181 0.233,0.454 0.312,0.817 l 0.388,0.859 c 0.05,0.06 0.075,0.129 0.075,0.206 0.143,0.324 0.273,0.54 0.388,0.644 h 0.083 c 0.097,0 0.226,-0.402 0.388,-1.205 0.028,0 0.104,-0.215 0.229,-0.644 V 5.689 L 7.775,5.631 7.671,5.664 H 7.541 V 5.598 L 7.803,5.573 H 8.315 C 8.514,4.863 8.696,4.313 8.863,3.922 8.918,3.118 8.994,2.717 9.091,2.717 L 9.266,2.633 A 4.742,4.742 0 0 0 6.349,1.635 Z M 6.765,3.278 H 6.841 V 3.303 C 6.841,3.341 6.816,3.36 6.765,3.36 L 6.738,3.393 V 3.426 L 6.662,3.393 V 3.336 Z M 6.378,3.6 v 0.033 c 0,0.044 -0.111,0.09 -0.333,0.14 V 3.715 L 6.198,3.633 6.225,3.657 H 6.246 Z M 5.63,3.897 V 3.922 C 5.533,4.01 5.376,4.089 5.159,4.161 V 4.103 c 0.037,0 0.056,-0.03 0.056,-0.09 z M 6.945,4.186 6.973,4.219 V 4.244 L 6.925,4.309 H 6.897 L 6.841,4.244 V 4.219 Z M 7.901,4.219 H 7.929 V 4.244 L 7.88,4.309 H 7.852 V 4.276 L 7.902,4.219 Z M 7.465,4.632 7.569,4.714 C 7.55,4.774 7.499,4.804 7.417,4.804 L 7.361,4.714 c 0,-0.028 0.034,-0.055 0.104,-0.082 z m 0.623,0.38 0.02,0.033 V 5.069 L 8.088,5.102 H 8.033 V 5.069 Z M 7.105,5.308 V 5.333 L 6.973,5.458 H 6.897 V 5.424 c 0,-0.05 0.07,-0.088 0.208,-0.116 z M 6.198,7.835 H 6.225 V 7.893 L 6.017,8.016 5.99,7.983 V 7.926 Z M 6.122,8.603 h 0.02 L 6.225,8.693 6.198,8.718 H 6.17 L 6.122,8.636 Z"
     id="path2"
     inkscape:connector-curvature="0"
     style="fill:#a02c2c" />
</svg>
